X:3
T:Dear Irish Boy
R:air
N:De Dannan selected jigs, reels and songs
I:abc2nwc
L:1/8
K:D
M:9/8
E2F|G5G F2E|FB5 A3[1F2E F3 E2E|D6:|[2F2E F2D4|E6:|
e2e|B5e f2e|B6 E2F|d9|F3 E3-E2E|D6 e2e|B5e f2e|B6  A2B|
e6 f2d|e6 e2f|g3 f2d eed|B6 E2F|d6 F3|F3 E2E D3-|D6 E2F|
G3-G2A A2B|e3-e2f dcB|AF2 G3-G2G|F6B3|E9|E6|]
